X: 26914
T: Miseeka
R: mazurka
M: 3/4
K: Gmajor
(3AdA|:G2 B2 d2|d2 (3BcB A2|G2 B2 d2|A4 (3GBG|F2 A2 B2|
c2 (3BcB A2|1 B6|B4 A2:|2 G4 GA|G2 B2 d2||
|:g4 g2|f4 f2|ef ed BA|B4 B2|
[1 AB AG FG|A4 A2|AB AG FD|G2 GA Bd:|
[2 AB AG FG|A4 AB|A2 G2 F2|G4 D2||

